X: 3
T:High Drive Reel
M:C|
L:1/8
Q:420
D:The Heart of Cape Breton, Smithsonian Folkways recording
R:  ((HT70B25M15D0U0))
K:D
d2 de fAdA | B2 gB BABB | A2 Ad fedf | eAec afge |
d2 de fAdA | B2 gB BABB | A2 Ad fedf | [1 edcA d2 A2 | [2 edcA d2 eg :|
a2 ag addd | {A}B2 BB gBgB | A2 Ad fedf | eAeA efge |
a2 ag addd | {A}B2 BB gBgB | A2 Ad fedf | [1 edcA d2 ef | [2 edcA d2  :|
